X:45
T:Moose Hunter's Reel
R:Reel
C:Bruce Osborne  --  June 8 1995
L:1/16
M:2/4
Z:abc by Bruce Osborne - bosborne@kos.net
K:D
fe|d2dB ABAF|A,CEF D2FG|AFBF Adcd|Adef e2fe|
d2dB ABAF|A,CEF D2FG|AFBF Adcd|AFEF D2:|
|:FG|AFBF AFEF|A,CEF D2FG|AFBF Adcd|fedf e2FG|
AFBF AFEF|A,CEF D2FG|AFBF Adcd|AFEF D2:|
